X: 546
T:Happy to meet and sorry to part
R:Jig
S:Seamus Ennis
Z:Andrew Pickering
M:6/8
L:1/8
N:Posted to the woodenflute mailing list, July 2002
K:G
f|edB BAB|GEF G2A|BAB def|~g3 agf|
edB BAB|GEF G2A|BAB def|~e3 e2:|
f||gfg fed|Bdd def|gfe fed|Bee e2f|
~g3 fed|Bdd def|gfg eag|[1 fef g2d:|[2 fef g2:|
<end>
<start>
